X:564
T:My Last Farewell to Stirling
Z:Jack Campin, http://www.campin.me.uk/
F:Jack Campin's Nine-Note Tunebook
% last edit 03-02-2013
M:C
L:1/8
Q:1/4=90
K:EDor
A2   |D3 D FE D2|F3 G  A3 \
 B/c/|d3 A A2 GF|E3 D =C2
zE   |D3 D FE D2|F3 G  A3 \
 B/c/|d2A2 AG E2|F2D2  D2|]

